X:135
T: Sweet Molly
M: 6/8
L: 1/8
B: O'Neill's 377
N: "With feeling."
N: "collected by F. O'Neill"
N: Grace notes are slurred to following note (which is then
N: sometimes slurred to the note after that.)
Z: Transcribed by Chris Falt, cfalt@trytel.com
K: A
A|(d>ed) (c>BA)|(d>e.d) (f<a).c|dBA|(d>e.d) (f<a)a|
(a/2g/2).g.g (gf).f|(e>fg) (b/2a/2g/2f/2g/2e/2)|(d>ed) {d}(c>BA)|(Bdc) d2a|
(a/2g/2).g.g (gf).f|(e>fg) (b/2a/2g/2f/2g/2e/2)|(d>ed) {d}(c>BA)|(Bdc) d2||
